X: 610
T: Shier biao
L: 1/8
M: 2/4
K: A
e f c B [I:setbarnb 1]| 
e f c B | 
e c e f | 
B2B2 | 
B c e e | 
e cB2 | 
G3F | 
E2E2 | 
E3C | 
E2E2 | 
e c B c | 
C2E2 | 
B cB2 | 
G FE2 | 
B cB2 | 
G FE2 | 
G B F G | 
B4 | 
B ce2 | 
e cB2 | 
B e G F | 
EG2F | 
E4 |]

@@@ Tune index: 9484
